src/Assets/Icons/General/SubNavbarComponent/youtube.svg

<svg width="24" height="24" viewBox="0 0 24 24" fill="none" xmlns="http://www.w3.org/2000/svg">
<rect width="24" height="24" rx="12" fill="white"/>
<path fill-rule="evenodd" clip-rule="evenodd" d="M11.9987 6.6665C12.5687 6.6665 13.1534 6.68117 13.72 6.70517L14.3894 6.73717L15.03 6.77517L15.63 6.81584L16.178 6.8585C16.7728 6.90376 17.3326 7.15746 17.7587 7.57491C18.1848 7.99235 18.4499 8.54677 18.5074 9.1405L18.534 9.42384L18.584 10.0305C18.6307 10.6592 18.6654 11.3445 18.6654 11.9998C18.6654 12.6552 18.6307 13.3405 18.584 13.9692L18.534 14.5758L18.5074 14.8592C18.4499 15.453 18.1847 16.0075 17.7584 16.425C17.3322 16.8424 16.7723 17.0961 16.1774 17.1412L15.6307 17.1832L15.0307 17.2245L14.3894 17.2625L13.72 17.2945C13.1466 17.3193 12.5727 17.3322 11.9987 17.3332C11.4247 17.3322 10.8508 17.3193 10.2774 17.2945L9.60803 17.2625L8.96736 17.2245L8.36736 17.1832L7.81936 17.1412C7.22457 17.0959 6.66483 16.8422 6.23873 16.4248C5.81262 16.0073 5.54749 15.4529 5.49003 14.8592L5.46336 14.5758L5.41336 13.9692C5.36259 13.3139 5.33546 12.657 5.33203 11.9998C5.33203 11.3445 5.3667 10.6592 5.41336 10.0305L5.46336 9.42384L5.49003 9.1405C5.54747 8.54687 5.81251 7.99254 6.23847 7.57511C6.66444 7.15768 7.22403 6.90391 7.8187 6.8585L8.36603 6.81584L8.96603 6.77517L9.60736 6.73717L10.2767 6.70517C10.8504 6.68032 11.4245 6.66743 11.9987 6.6665ZM10.6654 10.3832V13.6165C10.6654 13.9245 10.9987 14.1165 11.2654 13.9632L14.0654 12.3465C14.1263 12.3114 14.1769 12.2609 14.2121 12.2001C14.2473 12.1392 14.2658 12.0701 14.2658 11.9998C14.2658 11.9295 14.2473 11.8605 14.2121 11.7996C14.1769 11.7388 14.1263 11.6882 14.0654 11.6532L11.2654 10.0372C11.2045 10.0021 11.1355 9.98357 11.0653 9.98358C10.9951 9.98359 10.9261 10.0021 10.8653 10.0372C10.8044 10.0724 10.7539 10.1229 10.7189 10.1837C10.6838 10.2446 10.6653 10.3136 10.6654 10.3838V10.3832Z" fill="#0000FF"/>
</svg>

<svg xmlns="http://www.w3.org/2000/svg" width="24" height="24" fill="none"><rect width="24" height="24" fill="#fff" rx="12"/><path fill="#00F" fill-rule="evenodd" d="M11.999 6.667c.57 0 1.154.014 1.721.038l.67.032.64.038.6.04.548.043a2.53 2.53 0 0 1 2.33 2.282l.026.284.05.607c.047.628.081 1.313.081 1.969 0 .655-.034 1.34-.081 1.97l-.05.606-.027.283a2.53 2.53 0 0 1-2.33 2.282l-.546.042-.6.041-.642.038-.669.032a42 42 0 0 1-1.721.04 42 42 0 0 1-1.722-.04l-.669-.032-.64-.038-.6-.04-.549-.043A2.534 2.534 0 0 1 5.49 14.86l-.027-.283-.05-.607A27 27 0 0 1 5.332 12c0-.655.035-1.34.081-1.969l.05-.606.027-.284a2.53 2.53 0 0 1 2.329-2.282l.547-.042.6-.04.641-.039.67-.032a41 41 0 0 1 1.722-.038m-1.334 3.716v3.234a.4.4 0 0 0 .6.346l2.8-1.616a.4.4 0 0 0 0-.694l-2.8-1.616a.4.4 0 0 0-.6.347" clip-rule="evenodd"/></svg>
